X:157
T:Faithfull Shepherd, The
M:C
L:1/8
B:Thompson's Compleat Collection of 200 Favourite Country Dances, vol. 3 (London, 1773)
Z:Transcribed and edited by Flynn Titford-Mock, 2007
Z:abc's:AK/Fiddler's Companion
K:G
G2BG A2A2 | G2 BG A4 | BdBG AcAF | G2 [D2B2][B,2d2][G,2g2] :|
|: B2 dB c2c2 | B2 dB c4 | BdBG AcAF | G2 [D2B2][B,2d2][G,2g2] :|

